assets/icons/headphones-24.svg

<svg width="24" height="24" viewBox="0 0 24 24" fill="none" xmlns="http://www.w3.org/2000/svg">
<path d="M12 4C7.55496 4 4.00004 7.49598 4.00004 11.7495L4.00003 13H6C7.65685 13 9 14.3431 9 16V19C9 20.6569 7.65685 22 6 22H5C3.34315 22 2 20.6569 2 19L2.00004 11.7495C2.00004 6.33856 6.50398 2 12 2C17.4961 2 22 6.33856 22 11.7495V19C22 20.6569 20.6569 22 19 22H18C16.3431 22 15 20.6569 15 19V16C15 14.3431 16.3431 13 18 13H20V11.7495C20 7.49598 16.4451 4 12 4Z" fill="#F2F2F2"/>
</svg>

<svg xmlns="http://www.w3.org/2000/svg" width="24" height="24" viewBox="0 0 24 24"><path d="M12 4c-4.445 0-8 3.496-8 7.75V13h2a3 3 0 013 3v3a3 3 0 01-3 3H5a3 3 0 01-3-3v-7.25C2 6.338 6.504 2 12 2s10 4.339 10 9.75V19a3 3 0 01-3 3h-1a3 3 0 01-3-3v-3a3 3 0 013-3h2v-1.25C20 7.495 16.445 4 12 4z"/></svg>
